X: 27632
T: Mooncoin, The
R: jig
M: 6/8
K: Amixolydian
ed|:cBA AEA|AEA Bcd|cBA Ace|dBG Bcd|
cBA AEA|AEA Bcd|Ace bag|dBG Bcd:|
|:cde efg|f/g/af ged|cde efg|(.a2A) Bcd|
cde efg|afd bge|afd gec|dBG Bcd:|
|:cBA Aaf|ecA Bcd|cBA bag|dBG Bcd|
cBA Aaa|Agg Aff|Aee efg|dBG Bcd:|

